X: 7
T: Fermoy Lasses, The
Z: Philip Wick
S: https://thesession.org/tunes/219#setting25929
R: reel
M: 4/4
L: 1/8
K: Gmaj
|:GEE2BEE2|GEE2BcBA|GEE2BEE2|AFDFAcBA|GEE2BEE2|GEE2BcBA|G2GFGBdB|AFDFAcBA:||:G2BGdGBG|G2Bdefg|G2BGdGBG|AFGFAcBA|G2BGdGBG|G2Bdefg|afgededB|AFDFAcBA:||
